icons/Design/table-alt-fill.svg

<svg viewBox="0 0 24 24" xmlns="http://www.w3.org/2000/svg"><path d="M7 14V3H3C2.44772 3 2 3.44772 2 4V14H7ZM15 14V3H9V14H15ZM22 14V4C22 3.44772 21.5523 3 21 3H17V14H22ZM21 21C21.5523 21 22 20.5523 22 20V16H2V20C2 20.5523 2.44772 21 3 21H21Z"/></svg>

<svg xmlns="http://www.w3.org/2000/svg" viewBox="0 0 24 24">
    <g>
        <path fill="none" d="M0 0h24v24H0z"/>
        <path d="M7 14V3H3a1 1 0 0 0-1 1v10h5zm8 0V3H9v11h6zm7 0V4a1 1 0 0 0-1-1h-4v11h5zm-1 7a1 1 0 0 0 1-1v-4H2v4a1 1 0 0 0 1 1h18z"/>
    </g>
</svg>
